X:1
T:Title
%%score { ( 1 3 ) | ( 2 4 5 ) }
L:1/8
M:4/4
K:Bb
V:1 treble nm="Grand Piano"
V:3 treble 
V:2 bass 
V:4 bass 
V:5 bass 
V:1
 z4 z2[Q:1/4=108] [DF]2 | [Fd]3 [DF] [EG]2 [Ge]2 | [Fd]2 [Ec]2 [DB]2 [Fd]2 | %3
 [Fd]3 [FA] [GB]2 [G=B]2 |[M:3/4] [Gc]2 [GB]2 A2 |[M:1/4] F2 |[M:4/4] G3 [EG] A2 A2 | %7
 B2 c2 d2 [Fd]2 | [Fc]3 [FA] [=EG]2 [Ec]2 |[M:3/4] c6 |[M:1/4] F2 |[M:4/4] B4 B4 | B2 f>f f2 B2 | %13
 d4 d4 | d2 g>g g2 d2 | [=Ec]2 [Fc]2 [Gc]2 [EB]2 | A2 B2 c2 B2 | z4 [=EG]4 | F2 f2 g2 [Aea]2 | %19
 [db]2 z2 B4 | B2 f>f f2 B2 | d4 d4 | d2 g>g g2 [A,F]2 | [B,FB]2 c2 d2 c2 | %24
[M:9/8] d2 e- e f2- f [Ge]2 | %25
[M:4/4] d4 z4[Q:1/4=106][Q:1/4=105][Q:1/4=103][Q:1/4=101][Q:1/4=100][Q:1/4=98][Q:1/4=96][Q:1/4=95][Q:1/4=93][Q:1/4=91][Q:1/4=89][Q:1/4=88][Q:1/4=86][Q:1/4=84][Q:1/4=83] | %26
[M:3/4] [B,DFB]6 |] %27
V:2
 z4 z2 [B,,B,]2 | [B,,B,]3 [B,,B,] [E,B,]2 [E,B,]2 | [F,B,]2 [F,A,]2 [B,,B,]2 [B,,B,]2 | %3
 [D,A,]3 [D,D] [G,D]2 [F,D]2 |[M:3/4] [E,C]2 [E,C]2 [F,CF]2 |[M:1/4] [D,B,]2 | %6
[M:4/4] [E,B,E]3 [C,C] [F,CE]2 [^F,CE]2 | [G,B,D]2 [F,A,F]2 [B,F]2[K:bass] [A,,B,]2 | %8
 [C,A,]3 [C,C] [C,C]2 [C,B,]2 |[M:3/4] [F,A,E]6 |[M:1/4] F,2 |[M:4/4][K:treble] [B,DF]4 [B,EG]4 | %12
 [B,DF]2 [Bd]>[Bd] [Bd]2 [B,DF]2 | [B,DF]4 [A,C^F]4 | [G,B,G]2 [Bd]>[Bd] [Bd]2 [G,B,G]2 | %15
 [C,G,]2 [D,G,]2 [=E,C]2 [C,C]2 | [F,CF]2[K:treble] [G,CF]2 [A,CF]2 [B,DF]2 | [CF]4[K:bass] C2 z2 | %18
 z2[K:treble] e2 [Ge]2 [F,F]2 | [B,DFB]4 [B,EG]4 | [B,DF]2 [Bd]>[Bd] [Bd]2 [B,D]2 | %21
 [B,DF]4 [A,C^F]4 | [G,B,G]2 [Bd]>[Bd] [Bd]2[K:bass] F,E, | %23
 D,2[K:treble] [F,A,F]2 [B,F]2 [F,A,F]2 | %24
[M:9/8] [B,F]2 [B,CF]- [B,CF] [B,DB]2- [B,DB][K:bass] [E,B,]2 |[M:4/4] [B,F]2 D2 F,4 | %26
[M:3/4] B,,6 |] %27
V:3
 x8 | x8 | x8 | x8 |[M:3/4] x6 |[M:1/4] x2 |[M:4/4] x8 | x8 | x8 |[M:3/4] x6 |[M:1/4] x2 | %11
[M:4/4] x8 | x8 | x8 | x8 | x8 | x8 | A4 z2 B,2 | x8 | x8 | x8 | x8 | x8 | x8 |[M:9/8] x9 | %25
[M:4/4] z2 B2 [EAc]4 |[M:3/4] x6 |] %27
V:4
 x8 | x8 | x8 | x8 |[M:3/4] x6 |[M:1/4] x2 |[M:4/4] x8 | x6[K:bass] x2 | x8 |[M:3/4] x6 | %10
[M:1/4] x2 |[M:4/4][K:treble] x8 | x8 | x8 | x8 | x8 | x2[K:treble] x6 | z4[K:bass] C,4 | %18
 z2[K:treble] F4 z2 | x8 | x8 | x8 | x6[K:bass] x2 | x2[K:treble] x6 |[M:9/8] x7[K:bass] x2 | %25
[M:4/4] F,4 z4 |[M:3/4] x6 |] %27
V:5
 x8 | x8 | x8 | x8 |[M:3/4] x6 |[M:1/4] x2 |[M:4/4] x8 | x6[K:bass] x2 | x8 |[M:3/4] x6 | %10
[M:1/4] x2 |[M:4/4][K:treble] x8 | x8 | x8 | x8 | x8 | x2[K:treble] x6 | x4[K:bass] x4 | %18
 [F,A,]6[K:treble] z2 | x8 | x8 | x8 | x6[K:bass] x2 | x2[K:treble] x6 |[M:9/8] x7[K:bass] x2 | %25
[M:4/4] x8 |[M:3/4] x6 |] %27

